packages/core/src/svgs/tokens/branded/LEASH.svg

<svg width="24" height="24" viewBox="0 0 24 24" fill="none" xmlns="http://www.w3.org/2000/svg">
<path d="M12.0001 21.4288C17.3652 21.4288 21.7145 17.0796 21.7145 11.7144C21.7145 6.34928 17.3652 2 12.0001 2C6.63493 2 2.28564 6.34928 2.28564 11.7144C2.28564 17.0796 6.63493 21.4288 12.0001 21.4288Z" fill="#E53925"/>
<path d="M12.0006 19.7144C16.4189 19.7144 20.0007 16.1326 20.0007 11.7143C20.0007 7.29597 16.4189 3.7142 12.0006 3.7142C7.58226 3.7142 4.00049 7.29597 4.00049 11.7143C4.00049 16.1326 7.58226 19.7144 12.0006 19.7144Z" fill="#EB4D38"/>
<path d="M11.7154 18.0003C15.0291 18.0003 17.7155 15.3138 17.7155 12.0002C17.7155 8.68638 15.0291 6.00006 11.7154 6.00006C8.40166 6.00006 5.71533 8.68638 5.71533 12.0002C5.71533 15.3138 8.40166 18.0003 11.7154 18.0003Z" fill="#EF6050"/>
<path d="M12.0005 15.7143C14.2098 15.7143 16.0006 13.9235 16.0006 11.7143C16.0006 9.50506 14.2098 7.71423 12.0005 7.71423C9.79131 7.71423 8.00049 9.50506 8.00049 11.7143C8.00049 13.9235 9.79131 15.7143 12.0005 15.7143Z" fill="#F37363"/>
<path d="M12.0008 14.5711C13.5787 14.5711 14.8579 13.292 14.8579 11.714C14.8579 10.136 13.5787 8.85681 12.0008 8.85681C10.4227 8.85681 9.14355 10.136 9.14355 11.714C9.14355 13.292 10.4227 14.5711 12.0008 14.5711Z" fill="#F68072"/>
<path d="M12.0002 12.8575C12.6314 12.8575 13.1432 12.3458 13.1432 11.7146C13.1432 11.0834 12.6314 10.5718 12.0002 10.5718C11.369 10.5718 10.8574 11.0834 10.8574 11.7146C10.8574 12.3458 11.369 12.8575 12.0002 12.8575Z" fill="#F88B7E"/>
<path d="M10.2865 14.9775C10.3665 14.6861 12.0008 8.8631 12.0008 6.70878C12.0008 5.57734 11.098 2.57159 8.28646 2.57159C5.47499 2.57159 4.5607 5.57734 4.57213 6.70878C4.57213 8.82881 5.86929 13.486 6.20643 14.6975L6.28643 14.9831M7.53789 14.9831C7.72074 14.9831 7.71502 14.9889 7.66931 14.8003C7.38359 13.6803 6.01215 7.74309 6.01215 6.70878C6.01215 5.57734 6.73788 3.89161 8.28646 3.89161C9.82928 3.89161 10.5722 5.78877 10.5722 6.70878C10.5722 7.62309 8.9379 14.7546 8.8579 14.9775H10.2865" fill="#EC130A"/>
<path fill-rule="evenodd" clip-rule="evenodd" d="M4.74356 6.70308C4.74356 7.87452 5.14928 9.85173 5.57214 11.5888C5.77786 12.4575 5.98929 13.2575 6.155 13.8575L6.41787 14.8003H7.49216L7.24644 13.7888C6.83808 12.0231 6.45518 10.2515 6.09787 8.47453C5.94357 7.67452 5.84072 7.01165 5.84072 6.70308C5.84072 6.10877 6.02929 5.38876 6.4293 4.81162C6.8293 4.22875 7.44645 3.71446 8.28646 3.71446C9.13219 3.71446 9.74927 4.29162 10.1493 4.89162C10.5097 5.4317 10.7153 6.06016 10.7437 6.70878C10.7437 6.84021 10.715 7.06308 10.6693 7.34308L10.4865 8.3888C10.0506 10.5325 9.58394 12.67 9.08647 14.8003H10.155C10.275 14.3718 10.6465 13.0231 11.0122 11.4975C11.4293 9.726 11.8293 7.76022 11.8293 6.70878C11.8293 6.17735 11.6122 5.17734 11.0522 4.31447C10.7684 3.83442 10.3637 3.43721 9.87834 3.16245C9.393 2.88772 8.84413 2.74506 8.28646 2.74873C7.72805 2.74521 7.17844 2.88788 6.69224 3.16255C6.20604 3.43723 5.80018 3.83436 5.51499 4.31447C5.05053 5.02815 4.78429 5.85254 4.74356 6.70308ZM10.2865 14.9775C10.3665 14.6861 12.0008 8.8631 12.0008 6.70878C12.0008 5.57734 11.098 2.57159 8.28646 2.57159C5.47499 2.57159 4.5607 5.57734 4.57213 6.70878C4.57213 8.82881 5.86929 13.486 6.20643 14.6975L6.28643 14.9831M7.53789 14.9831C7.72074 14.9831 7.71502 14.9889 7.66931 14.8003C7.38359 13.6803 6.01215 7.74309 6.01215 6.70878C6.01215 5.57734 6.73788 3.89161 8.28646 3.89161C9.82928 3.89161 10.5722 5.78877 10.5722 6.70878C10.5722 7.62309 8.9379 14.7546 8.8579 14.9775H10.2865" fill="black"/>
<path d="M6.00024 14.5718H8.28599V20.8576H7.42884L6.00024 14.5718Z" fill="#9F9F9F"/>
<path fill-rule="evenodd" clip-rule="evenodd" d="M6.00024 14.5718L7.42884 20.8576H8.28599V14.5718H6.00024ZM6.21739 14.7431L7.56026 20.6862H8.28599V14.7431H6.21739Z" fill="black"/>
<path d="M10.5712 14.5718H8.2854V20.8576H9.13112L10.5712 14.5718Z" fill="#B8B8B8"/>
<path d="M8.2854 14.5718H10.5712L9.14254 20.8576H8.2854V14.5718ZM8.2854 20.6862H8.99398L10.354 14.7431H8.2854V20.6862Z" fill="black"/>
<path d="M9.14277 20.857H7.42847V21.9999H9.14277V20.857Z" fill="#EC130A"/>
<path d="M8.97134 20.857H7.5999V21.8284H8.97134V20.857ZM9.14277 20.857V21.9999H7.42847V20.857H9.14277Z" fill="black"/>
<path d="M17.715 17.4285H16.0007V22H17.715V17.4285Z" fill="#EC130A"/>
<path d="M17.5436 17.5999H16.1722V21.8285H17.5436V17.5999ZM17.715 17.4285V22H16.0007V17.4285H17.715Z" fill="black"/>
<path d="M16.8577 12.2859C17.8063 12.2859 18.572 13.0917 18.572 14.0802C18.572 15.0745 17.8063 16.8574 16.8577 16.8574C15.9092 16.8574 15.1434 15.086 15.1434 14.0802C15.1373 13.8497 15.177 13.6202 15.26 13.4049C15.343 13.1897 15.4677 12.993 15.6272 12.8263C15.7865 12.6595 15.9772 12.5259 16.1884 12.4331C16.3996 12.3405 16.6271 12.2903 16.8577 12.2859Z" fill="#EC130A"/>
<path fill-rule="evenodd" clip-rule="evenodd" d="M18.401 14.0802C18.4102 13.6609 18.2532 13.2547 17.9641 12.9507C17.675 12.6467 17.2774 12.4694 16.8581 12.4574C16.6501 12.4618 16.4449 12.5074 16.2545 12.5915C16.0641 12.6757 15.8921 12.7966 15.7487 12.9475C15.6053 13.0983 15.4931 13.2761 15.4187 13.4705C15.3443 13.665 15.3091 13.8722 15.3153 14.0802C15.3153 14.5489 15.4981 15.2174 15.7953 15.766C15.9438 16.0402 16.121 16.2745 16.3095 16.4345C16.4925 16.606 16.6753 16.686 16.8581 16.686C17.041 16.686 17.2238 16.6002 17.4125 16.4345C17.5953 16.2689 17.7725 16.0345 17.921 15.7602C18.2065 15.244 18.3706 14.6694 18.401 14.0802ZM18.5725 14.0802C18.5817 13.6154 18.4065 13.1658 18.0853 12.8295C17.7641 12.4934 17.3229 12.2979 16.8581 12.2859C15.9095 12.2859 15.1438 13.0859 15.1438 14.0802C15.1438 15.086 15.9095 16.8574 16.8581 16.8574C17.8068 16.8574 18.5725 15.0745 18.5725 14.0802Z" fill="black"/>
<path d="M16.0011 16.0002H16.8583V18.0003H16.0011L15.7153 17.4288V16.5716L16.0011 16.0002Z" fill="#9F9F9F"/>
<path d="M16.1096 16.1716L15.8868 16.6116V17.3888L16.1096 17.8288H16.8583V16.1716H16.1096ZM16.0011 18.0003L15.7153 17.4288V16.5716L16.0011 16.0002H16.8583V18.0003H16.0011Z" fill="black"/>
<path d="M17.7147 16.0002H16.8577V18.0003H17.7147L18.0005 17.4288V16.5716L17.7147 16.0002Z" fill="#B8B8B8"/>
<path d="M16.8577 16.0002H17.7147L18.0005 16.5716V17.4288L17.7147 18.0003H16.8577V16.0002ZM16.8577 17.8288H17.6062L17.829 17.3888V16.6116L17.6062 16.1716H16.8577V17.8288Z" fill="black"/>
<path d="M15.0294 5.42841H15.6866L17.1152 7.51987L16.1324 7.74844C16.1152 7.74844 14.9209 5.80556 15.0294 5.42841Z" fill="#F0A32F"/>
<path fill-rule="evenodd" clip-rule="evenodd" d="M15.0294 5.55985L15.0351 5.59985C15.1666 6.19986 16.1208 7.75416 16.1323 7.75416L17.1094 7.52558L15.6808 5.42841H15.0294C15.0202 5.47173 15.0202 5.51653 15.0294 5.55985ZM15.6008 5.59985H15.2123C15.2294 5.67413 15.2694 5.77128 15.3094 5.88556C15.5806 6.45815 15.88 7.01695 16.2066 7.55987L16.8294 7.4113L15.5951 5.59985H15.6008Z" fill="black"/>
<path d="M14.6351 4.57162H15.6637C15.9837 3.85161 16.6922 3.71446 17.2065 3.71446C17.978 3.71446 18.7495 4.18304 18.7495 5.17734C18.7495 6.0002 17.7665 6.81165 16.7837 7.00593C15.5722 7.25736 15.4065 7.40594 15.4122 7.80594C15.4294 8.20595 15.4809 9.07452 15.8122 9.36026C15.9437 9.47452 16.0179 10.0003 16.0179 10.0003H17.7152L17.7665 9.51452C17.7665 9.51452 18.338 9.28599 18.3952 7.83452C18.9895 6.94878 19.7723 6.85736 19.7723 5.12019C19.7723 3.46303 18.2294 2.57159 17.2009 2.57159C16.1722 2.57159 15.1779 3.04016 14.6294 4.57162H14.6351Z" fill="#F0A32F"/>
<path fill-rule="evenodd" clip-rule="evenodd" d="M16.0008 10.0003H17.7208L17.7721 9.51452C17.7721 9.51452 18.3436 9.28599 18.4008 7.83452C18.5721 7.57737 18.7608 7.38879 18.9379 7.20593C19.3836 6.7545 19.7779 6.3545 19.7779 5.12019C19.7779 3.46303 18.2351 2.57159 17.2065 2.57159C16.2178 2.57159 15.2636 3.00588 14.7035 4.40018L14.635 4.57162H15.6636C15.9836 3.85161 16.6921 3.71446 17.2065 3.71446C17.9779 3.71446 18.7493 4.18304 18.7493 5.17733C18.7493 6.0002 17.7493 6.81736 16.7665 7.01165C15.5608 7.25736 15.3893 7.41166 15.4008 7.81166C15.4121 8.21167 15.4693 9.08025 15.795 9.36026C15.9265 9.47452 16.0008 10.006 16.0008 10.006V10.0003ZM15.5721 4.40018C15.955 3.66874 16.7036 3.54303 17.2065 3.54303C17.6178 3.54303 18.0408 3.66874 18.3608 3.93732C18.6865 4.21162 18.9036 4.62305 18.9036 5.17733C18.9036 5.65163 18.6751 6.10307 18.3208 6.45735C17.8847 6.82902 17.3585 7.07932 16.795 7.18308C16.4172 7.23439 16.0493 7.34226 15.7036 7.50309C15.6236 7.54879 15.5893 7.59451 15.5778 7.62879C15.5578 7.68359 15.5501 7.7421 15.555 7.80022C15.5608 8.00023 15.5778 8.3031 15.6293 8.59453C15.6578 8.73738 15.6921 8.87453 15.7436 8.9831C15.7836 9.09745 15.835 9.17745 15.8921 9.22305C15.955 9.28026 15.995 9.37172 16.0236 9.44026C16.0716 9.56573 16.1061 9.69599 16.1265 9.8288H17.5836L17.6293 9.38879L17.7151 9.35452L17.7265 9.34879L17.7721 9.31452C17.8121 9.28026 17.8693 9.22305 17.9379 9.11452C18.1496 8.71755 18.2559 8.27288 18.2465 7.82309V7.77166L18.2751 7.73166C18.4351 7.49737 18.6008 7.31451 18.7608 7.15451L18.8351 7.07451C18.9665 6.94308 19.0865 6.82308 19.1951 6.68593C19.4408 6.37164 19.6236 5.95449 19.6236 5.12019C19.6236 4.36018 19.2751 3.76589 18.7893 3.36018C18.3457 2.98301 17.7883 2.76569 17.2065 2.74302C16.715 2.74302 16.235 2.8573 15.8236 3.14303C15.3904 3.46073 15.0587 3.89749 14.8693 4.40018H15.5721Z" fill="black"/>
<path d="M16.8579 14.0002C17.4293 14.0002 17.715 13.7145 17.715 13.143V10.0002H16.0007V13.143C16.0007 13.7145 16.2865 14.0002 16.8579 14.0002Z" fill="#F89202"/>
<path fill-rule="evenodd" clip-rule="evenodd" d="M17.378 13.663C17.4808 13.5658 17.5436 13.4002 17.5436 13.143V10.0002H16.1722V13.143C16.1722 13.4002 16.235 13.5658 16.3379 13.663C16.435 13.7658 16.6007 13.8288 16.8579 13.8288C17.115 13.8288 17.2807 13.7658 17.378 13.663ZM16.0007 13.143C16.0007 13.7145 16.2865 14.0002 16.8579 14.0002C17.4293 14.0002 17.715 13.7145 17.715 13.143V10.0002H16.0007V13.143Z" fill="black"/>
</svg>

<svg xmlns="http://www.w3.org/2000/svg" width="24" height="24" fill="none" viewBox="0 0 24 24">
    <path fill="#E53925" d="M12 21.429c5.365 0 9.715-4.35 9.715-9.715S17.365 2 12 2s-9.714 4.35-9.714 9.714c0 5.366 4.349 9.715 9.714 9.715"/>
    <path fill="#EB4D38" d="M12 19.714a8 8 0 1 0 0-16 8 8 0 0 0 0 16"/>
    <path fill="#EF6050" d="M11.715 18a6 6 0 1 0 0-12 6 6 0 0 0 0 12"/>
    <path fill="#F37363" d="M12 15.714a4 4 0 1 0 0-8 4 4 0 0 0 0 8"/>
    <path fill="#F68072" d="M12 14.571a2.857 2.857 0 1 0 0-5.714 2.857 2.857 0 0 0 0 5.714"/>
    <path fill="#F88B7E" d="M12 12.858a1.143 1.143 0 1 0 0-2.286 1.143 1.143 0 0 0 0 2.286"/>
    <path fill="#EC130A" d="M10.287 14.978c.08-.292 1.714-6.115 1.714-8.27 0-1.13-.903-4.136-3.715-4.136S4.561 5.577 4.572 6.709c0 2.12 1.297 6.777 1.634 7.989l.08.285m1.252 0c.183 0 .177.006.131-.183-.285-1.12-1.657-7.057-1.657-8.091 0-1.132.726-2.817 2.274-2.817 1.543 0 2.286 1.897 2.286 2.817 0 .914-1.634 8.046-1.714 8.269h1.428"/>
    <path fill="#000" fill-rule="evenodd" d="M4.744 6.703c0 1.172.405 3.149.828 4.886.206.868.417 1.668.583 2.268l.263.943h1.074l-.246-1.011a189 189 0 0 1-1.148-5.314c-.154-.8-.257-1.463-.257-1.772 0-.594.188-1.314.588-1.891.4-.583 1.017-1.098 1.857-1.098.846 0 1.463.578 1.863 1.178.36.54.566 1.168.595 1.817 0 .131-.029.354-.075.634l-.183 1.046a228 228 0 0 1-1.4 6.411h1.069c.12-.428.492-1.777.857-3.302.417-1.772.817-3.738.817-4.79 0-.53-.217-1.53-.777-2.394A3.19 3.19 0 0 0 8.286 2.75a3.2 3.2 0 0 0-2.771 1.565 4.8 4.8 0 0 0-.771 2.39m5.543 8.275c.08-.292 1.714-6.115 1.714-8.27 0-1.13-.903-4.136-3.715-4.136S4.561 5.577 4.572 6.709c0 2.12 1.297 6.777 1.634 7.989l.08.285m1.252 0c.183 0 .177.006.131-.183-.285-1.12-1.657-7.057-1.657-8.091 0-1.132.726-2.817 2.274-2.817 1.543 0 2.286 1.897 2.286 2.817 0 .914-1.634 8.046-1.714 8.269h1.428" clip-rule="evenodd"/>
    <path fill="#9F9F9F" d="M6 14.572h2.286v6.286h-.857z"/>
    <path fill="#000" fill-rule="evenodd" d="m6 14.572 1.429 6.286h.857v-6.286zm.217.171 1.343 5.943h.726v-5.943z" clip-rule="evenodd"/>
    <path fill="#B8B8B8" d="M10.571 14.572H8.285v6.286h.846z"/>
    <path fill="#000" d="M8.285 14.572h2.286l-1.428 6.286h-.858zm0 6.114h.709l1.36-5.943H8.285z"/>
    <path fill="#EC130A" d="M9.143 20.857H7.428V22h1.715z"/>
    <path fill="#000" d="M8.971 20.857H7.6v.971h1.37zm.172 0V22H7.428v-1.143z"/>
    <path fill="#EC130A" d="M17.715 17.429h-1.714V22h1.714z"/>
    <path fill="#000" d="M17.544 17.6h-1.372v4.228h1.372zm.171-.172V22h-1.714v-4.571z"/>
    <path fill="#EC130A" d="M16.858 12.286c.948 0 1.714.806 1.714 1.794 0 .995-.766 2.777-1.714 2.777-.949 0-1.715-1.771-1.715-2.777a1.75 1.75 0 0 1 1.715-1.794"/>
    <path fill="#000" fill-rule="evenodd" d="M18.401 14.08a1.59 1.59 0 0 0-1.543-1.623 1.577 1.577 0 0 0-1.543 1.623c0 .469.183 1.137.48 1.686.149.274.326.508.515.668.183.172.365.252.548.252q.273-.002.555-.252c.182-.165.36-.4.508-.674.285-.516.45-1.09.48-1.68m.172 0a1.76 1.76 0 0 0-1.715-1.794c-.949 0-1.714.8-1.714 1.794 0 1.006.765 2.777 1.714 2.777s1.715-1.782 1.715-2.777" clip-rule="evenodd"/>
    <path fill="#9F9F9F" d="M16.001 16h.857v2h-.857l-.286-.571v-.857z"/>
    <path fill="#000" d="m16.11 16.172-.223.44v.777l.223.44h.748v-1.657zM16 18l-.286-.571v-.857L16 16h.857v2z"/>
    <path fill="#B8B8B8" d="M17.715 16h-.857v2h.857l.285-.57v-.857z"/>
    <path fill="#000" d="M16.858 16h.857l.285.572v.857l-.285.571h-.857zm0 1.829h.748l.223-.44v-.777l-.223-.44h-.748z"/>
    <path fill="#F0A32F" d="M15.03 5.428h.657l1.428 2.092-.983.228c-.017 0-1.211-1.942-1.103-2.32"/>
    <path fill="#000" fill-rule="evenodd" d="m15.03 5.56.005.04c.132.6 1.086 2.154 1.097 2.154l.977-.228-1.428-2.098h-.652a.3.3 0 0 0 0 .132m.57.04h-.388c.017.074.057.171.097.286q.408.858.898 1.674l.622-.149L15.595 5.6z" clip-rule="evenodd"/>
    <path fill="#F0A32F" d="M14.635 4.572h1.029c.32-.72 1.028-.858 1.542-.858.772 0 1.544.469 1.544 1.463 0 .823-.983 1.635-1.966 1.829-1.212.251-1.377.4-1.372.8.017.4.069 1.269.4 1.554.132.115.206.64.206.64h1.697l.052-.485s.571-.229.628-1.68c.595-.886 1.377-.978 1.377-2.715 0-1.657-1.543-2.548-2.571-2.548s-2.023.468-2.572 2z"/>
    <path fill="#000" fill-rule="evenodd" d="M16 10h1.72l.052-.485s.572-.229.629-1.68c.171-.258.36-.446.537-.63.446-.45.84-.85.84-2.085 0-1.657-1.543-2.548-2.572-2.548-.988 0-1.942.434-2.502 1.828l-.069.172h1.029c.32-.72 1.028-.858 1.542-.858.772 0 1.543.469 1.543 1.463 0 .823-1 1.64-1.982 1.835-1.206.245-1.378.4-1.366.8s.068 1.268.394 1.548c.132.115.206.646.206.646zm-.428-5.6c.383-.731 1.132-.857 1.634-.857.412 0 .835.126 1.155.394.325.275.543.686.543 1.24 0 .475-.229.926-.583 1.28a3.26 3.26 0 0 1-1.526.726 3.8 3.8 0 0 0-1.091.32c-.08.046-.115.092-.126.126a.4.4 0 0 0-.023.171c.006.2.023.503.074.795.029.142.063.28.115.388q.061.171.148.24a.6.6 0 0 1 .132.217q.072.19.102.389h1.458l.045-.44.086-.034.012-.006.045-.034a1 1 0 0 0 .166-.2c.212-.397.318-.842.309-1.292v-.051l.028-.04c.16-.235.326-.417.486-.577l.074-.08c.131-.132.252-.252.36-.39.246-.313.429-.73.429-1.565 0-.76-.349-1.354-.835-1.76a2.6 2.6 0 0 0-1.583-.617c-.491 0-.971.114-1.382.4a2.77 2.77 0 0 0-.955 1.257z" clip-rule="evenodd"/>
    <path fill="#F89202" d="M16.858 14q.857 0 .857-.857V10h-1.714v3.143q0 .857.857.857"/>
    <path fill="#000" fill-rule="evenodd" d="M17.378 13.663c.103-.097.166-.263.166-.52V10h-1.372v3.143c0 .257.063.423.166.52.097.103.263.166.52.166s.423-.063.52-.166m-1.377-.52q0 .857.857.857t.857-.857V10h-1.714z" clip-rule="evenodd"/>
</svg>
